assets/img/icons/duotone-icons/Shopping/Barcode.svg

<?xml version="1.0" encoding="UTF-8"?>
<svg width="24px" height="24px" viewBox="0 0 24 24" version="1.1" xmlns="http://www.w3.org/2000/svg" xmlns:xlink="http://www.w3.org/1999/xlink">
    <!-- Generator: Sketch 52.2 (67145) - http://www.bohemiancoding.com/sketch -->
    <title>Stockholm-icons / Shopping / Barcode</title>
    <desc>Created with Sketch.</desc>
    <g id="Stockholm-icons-/-Shopping-/-Barcode" stroke="none" stroke-width="1" fill="none" fill-rule="evenodd">
        <rect id="bound" x="0" y="0" width="24" height="24"></rect>
        <path d="M13,5 L15,5 L15,20 L13,20 L13,5 Z M5,5 L5,20 L3,20 C2.44771525,20 2,19.5522847 2,19 L2,6 C2,5.44771525 2.44771525,5 3,5 L5,5 Z M16,5 L18,5 L18,20 L16,20 L16,5 Z M20,5 L21,5 C21.5522847,5 22,5.44771525 22,6 L22,19 C22,19.5522847 21.5522847,20 21,20 L20,20 L20,5 Z" id="Combined-Shape" fill="#335EEA"></path>
        <polygon id="Path" fill="#335EEA" opacity="0.3" points="9 5 9 20 7 20 7 5"></polygon>
    </g>
</svg>

<svg width="24" height="24" viewBox="0 0 24 24" xmlns="http://www.w3.org/2000/svg"><g fill="none" fill-rule="evenodd"><path d="M0 0h24v24H0z"/><path d="M13 5h2v15h-2V5zM5 5v15H3a1 1 0 01-1-1V6a1 1 0 011-1h2zm11 0h2v15h-2V5zm4 0h1a1 1 0 011 1v13a1 1 0 01-1 1h-1V5z" fill="#335EEA"/><path fill="#335EEA" opacity=".3" d="M9 5v15H7V5z"/></g></svg>
